X:1
T:Title
%%score ( 1 2 ) ( 3 4 )
L:1/8
Q:1/4=90
M:4/4
K:G
V:1 treble nm="Strings 1, Treble"
V:2 treble 
V:3 bass nm="Strings 1, Bass"
V:4 bass 
V:1
 z4 z2 D2[Q:1/4=12] |[Q:1/4=90] [DG]2 [DG]2 GFGB | [DA]2 D2 D2 D2 | [FA]2 [FA]2 Ac[GB][DA] | %4
w: 1.~Oh,~|write~ Thy~ won * drous~ *|love~ di vine~ Up|on~ the~ ta * bles~ *|
 [DG]2 [GB]2 [GB]2 D2 | z4 .G2 .G2 | [DA]2 D2 D2 D2 | [Fc]2 BA [GB]2 AG | %8
w: of~ my~ heart,~ That~|keep~ Thy~|sta tutes,~ Lord,~ And~|nev er~ * from~ Thy~ *|
 [EA]2 GF [DG]2[Q:1/4=90] dc[Q:1/4=12][Q:1/4=12] |[Q:1/4=90] [GB]2 [GB]2 [GB][Bd][Ac][GB] | %10
w: way~ de * part.~ * *||
 [Gc]2 [Ge]2 [Ge]2 cB | [FA]2 [FA]2 AG[FA][Ac] | [GB]2 [Gd]2 [Gd]2 [GB][DA] | z4 .G2 .G2 | %14
w: ||||
 [DA]2 D2 D2 D2 | [Fc]2 BA [GB]2 AG | [EA]2 GF [DG]2[Q:1/4=90] z2[Q:1/4=12] |] %17
w: |||
V:2
 x8 | z4 D2 D2 | x8 | z4 F2 z2 | x8 | [DG]2 [DG]2 D-[DF]D-[DB] | x8 | z2 F2 z2 D2 | z2 D2 z2 G2 | %9
w: |||||* may~ * * * *||||
 x8 | z4 z2 E2 | z4 F2 z2 | x8 | [DG]2 [DG]2 D-[DF]D-[DB] | x8 | z2 F2 z2 D2 | z2 D2 z4 |] %17
w: ||||||||
V:3
 z4 z2 D,2 | [G,,B,]2 [G,,B,]2 B,A,B,G, | [D,F,]2 [D,F,]2 [D,F,]2 [D,F,]2 | [D,C]2 [D,C]2 CA,DC | %4
 [G,B,]2 [G,D]2 [G,D]2 [G,,B,]2 | [G,,B,]2 [G,,B,]2 B,A,B,G, | [D,F,]2 [D,F,]2 [D,F,]2 [D,F,]2 | %7
 [D,A,]2 [D,D]2 [G,D]2 [B,,D]2 | [C,C]2 B,A, [G,,G,B,]2 B,A, | G,2 [G,D]2 [G,D]2 [G,D]2 | %10
 [C,E]2 [C,C]2 [C,C]2 [C,C]2 | [D,C]2 [D,C]2 CB, [D,D]2 | [G,D]2 [G,B,]2 [G,B,]2 DC | z4 z2 G,2 | %14
 [D,F,]2 [D,F,]2 [D,F,]2 [D,F,]2 | [D,A,]2 [D,D]2 [G,D]2 [B,,D]2 | [C,C]2 B,A, [G,,G,B,]2 z2 |] %17
V:4
 x8 | z4 G,,2 G,,2 | x8 | z4 D,2 D,2 | x8 | z4 G,,2 G,,2 | x8 | x8 | z2 D,2 z2 G,2 | x8 | x8 | %11
 z4 D,2 z2 | z4 z2 G,2 | [G,B,]2 [G,B,]2 [G,,B,][A,,A,]B,,G,, | x8 | x8 | z2 D,2 z4 |] %17

